X:1
T:A minor James C. Lowry, 1820
T:Philipp Nicolai, 1597 (in German) 887. 887. 44. 44. 8.
T:Morning Star
T:Transcribed from The Kentucky Harmony, 1825
%%score [ 1 2 3 4 ]
L:1/8
Q:1/8=120
M:6/8
K:C
V:1 treble nm="Tr." snm="Tr."
V:2 treble nm="C." snm="C."
V:3 treble-8 nm="T." snm="T."
V:4 bass nm="B." snm="B."
V:1
"^2. O  pre–cious pearl, crown of my life,       Tru – ly   God's  Son,  of  Ma – ry   born,    A       King    with   high –  est    birthright.                 As""^1. How splendid shines the morning star,  God's gracious light from darkness far,   The     root      of      Jes   –   se     bles–sed.                Thou" A3 e2 e | %1
 c2 A G2 A | B2 d egf | e2 d c2 A | A3 A3 | ede EFG | A3 A3 | z2 z E3 | %8
"^1. David's  son    of     Jacob's stem,  My bridegroom, King, and wondrous Lamb, Thou  hast   my  heart   pos–ses–sed.    Sweetly,   friendly,""^2. a    li  –  ly,   my  heart  sees  you;      Redemption's  sto–ry     is      my     song,    Is        pu – rest    milk     and   ho–ney.      O     my   flo –wer," G2 A ABd | %9
 edB A3 | A3 E2 E | G2 G AGE | (c2 d) e3 | ede EFG | A3 A3 |: c2 c cde | %16
"^1. O  thou  handsome,  Pre–cious ran–som,    Full       of    gra  –   ces,    Set   and   kept     in     heaven–ly   pla  –  ces.""^2. Sing hos – sa – na,   Heav'n–ly man – na   That     we've  ea –  ten,    Sac – ri  – fice      un – for  –  get – ta    –  ble." B2 B EFG | %17
 A2 A ABc | efe edB | d2 B AGA | EFG A3 | A6 :| %22
V:2
"^3. Put  yourself  deep  within  my  heart,   Clea–rer    than   jas–per   or    ru  –  by,    Em  –  bed       the   flames  of     your  love.               And""^4. Glorious light comes to me from God,   When you  with  your  beautiful     eyes    See       me        with  true    friend – li – ness.               O" E3 E2 E | %1
 A2 A G2 F | E2 E E2 F | E2 D C2 D | E3 E3 | A2 A BAG | E3 E3 | z2 z E3 | %8
"^3. free  me,  so   that    I    may   be        Cho–sen  to    be      in    your   bo – dy,      Close   as       a     rib       or   arm–bone!     Because    of     you,""^4. Lord   Jesus,  my     highest   good,   Your  word,  your  spirit. life and blood.    Make   them   a – live       with–in   me!        As    a   friend,  take" G2 A A2 G | %9
 G2 F E3 | E3 A2 A | B2 G E2 G | A3 A3 | c2 c BAG | E3 E3 |: E2 E D2 E | %16
"^3. Rose  of  hea – ven,   Full    of    gra  –  ces,  My        heart    is     full,    Warmed  by  all  your  con – vin – cing     love.""^4. me   in   your   arms,   So  I   am   warmed    In      your sweet grace,    I      am   in      –   vi   – ted     by    your    word." G2 G G2 G | %17
 E2 E G2 A | cBA B2 B | A2 E G2 A | BAG E3 | E6 :| %22
V:3
"^5. Lord  God Fa–ther, mighty champion,   Be – fore  the  world  you have al–ways  Loved  me    through  your  on –  ly    Son.               Your""^6. Strum the strings on the harp and lute,  And  let  the  swee–ter  music's  sound    Car  –  ry     through   the    joy – ful   land.             There –" E3 A2 B | %1
 c2 d e2 f | e2 B c2 A | A2 B G2 F | E3 E3 | A2 c BAG | A3 A3 | z2 z e3 | %8
"^5. Son  promised  himself   to  me;       He    my  vic – to – ry,     I         his   bride,     Re  –  joi  –  cing   great–ly    in    him.       Tru – ly,    tru –  ly,""^6. –fore  I may with  my     Je–sus,     My most  beau–ti–ful    com –pa –nion,      Dai – ly        live    in    con–stant love.      Singing,  jumping," g2 f e2 d | %9
 c2 d e3 | c3 c2 c | B2 c dBG | E3 E3 | A2 c BAG | A3 A3 |: e2 e edc | %16
"^5.  He  will  give  me     Life     in    hea – ven    There     for – ev   –    er!    There–fore  I      will     praise   him   al  –  ways.""^6.  Vic–to–rious–ly,      Tri –umph –ant –ly,    Thanks   to     the    Lord!  Give   ho –nor     un  –  to          the   great  King!" d2 d dcB | %17
 e2 e edc | Bdc BAG | A2 B c2 d | BAG A3 | A6 :| %22
V:4
"^7.    I    am  full    of     joy   in    my  heart,   My  true     Al – pha  and  O – me –  ga,    My      be   –   gin – ning    and    my   end.                  As" E,3 A,2 G, | %1
 E,2 D, C,2 D, | E,2 E, A,2 A, | A,2 D, C,2 A,, | A,,3 A,,3 | C,2 A, E,D,E, | A,,3 A,,3 | %7
 z2 z A,3 | %8
"^7. his re –ward   he     will    take   me     With  him  up   to    his    pa  –  ra – dise,     There–fore,   we   all   clap   our  hands.    A – men,  A  –  men!" C2 A, A,2 G, | %9
 C,2 D, E,3 | E,3 C,2 C, | G,2 G, A,G,E, | C,3 A,,3 | C,2 D, E,D,E, | A,,3 A,,3 |: A,2 A, A,2 E, | %16
"^________________________________________________\nStanza 1 – Unknown translator\nStanzas 2-7 – Free paraphrase by B. C. Johnston, 2017""^7. Come,  you  joy–ous   Crown  of  glo – ry,     He   –   si   –  tate     not,    I       am   lon – ging,   wai – ting   for       you." D,2 D, D,2 E, | %17
 C,2 C, C,2 A,, | E,D,E, E,F,G, | A,2 E, C,2 D, | E,D,E, A,,3 | A,,6 :| %22

